packages/Snapp/src/RideDetailIcon/index.svg

<?xml version="1.0" encoding="UTF-8"?>
<svg width="24px" height="24px" viewBox="0 0 24 24" version="1.1" xmlns="http://www.w3.org/2000/svg" xmlns:xlink="http://www.w3.org/1999/xlink">
    <title>Icons/24/RideDetail</title>
    <g id="Icons/24/RideDetail" stroke="none" stroke-width="1" fill="none" fill-rule="evenodd">
        <rect id="Container" fill-opacity="0" fill="#D8D8D8" fill-rule="nonzero" x="0" y="0" width="24" height="24"></rect>
        <path d="M17.3333333,2 C18.8060927,2 20,3.27918643 20,4.85714286 L20,19.1428571 C20,20.7208136 18.8060927,22 17.3333333,22 L6.66666667,22 C5.19390733,22 4,20.7208136 4,19.1428571 L4,4.85714286 C4,3.27918643 5.19390733,2 6.66666667,2 L17.3333333,2 Z M17,4 L7,4 C6.49019869,4 6.06949802,4.42094917 6.00779142,4.96503407 L6,5.10344828 L6,18.8965517 C6,19.4590911 6.38148518,19.9233125 6.87456212,19.9914026 L7,20 L17,20 C17.5098013,20 17.930502,19.5790508 17.9922086,19.0349659 L18,18.8965517 L18,5.10344828 C18,4.5409089 17.6185148,4.07668747 17.1254379,4.00859743 L17,4 Z M16,17 C16,17.5522847 15.5522847,18 15,18 L9,18 C8.44771525,18 8,17.5522847 8,17 C8,16.4477153 8.44771525,16 9,16 L15,16 C15.5522847,16 16,16.4477153 16,17 Z M16,13 C16,13.5522847 15.5522847,14 15,14 L13,14 C12.4477153,14 12,13.5522847 12,13 C12,12.4477153 12.4477153,12 13,12 L15,12 C15.5522847,12 16,12.4477153 16,13 Z M12.267767,6.76054425 C13.2440777,7.77460326 13.2440777,9.41871775 12.267767,10.4327768 L10.9419417,11.8098639 C10.6978641,12.0633787 10.3021359,12.0633787 10.0580583,11.8098639 L8.73223305,10.4327768 C7.75592232,9.41871775 7.75592232,7.77460326 8.73223305,6.76054425 C9.70854378,5.74648525 11.2914562,5.74648525 12.267767,6.76054425 Z M10.5,7.50755307 C9.94771525,7.50755307 9.5,7.95526832 9.5,8.50755307 C9.5,9.05983782 9.94771525,9.50755307 10.5,9.50755307 C11.0522847,9.50755307 11.5,9.05983782 11.5,8.50755307 C11.5,7.95526832 11.0522847,7.50755307 10.5,7.50755307 Z" id="Shape" fill="#404040"></path>
    </g>
</svg>

<svg viewBox="0 0 24 24" xmlns="http://www.w3.org/2000/svg" fill="currentColor" focusable="false">
  <path d="M17.333 2C18.806 2 20 3.28 20 4.857v14.286C20 20.72 18.806 22 17.333 22H6.667C5.194 22 4 20.72 4 19.143V4.857C4 3.28 5.194 2 6.667 2h10.666zM17 4H7c-.51 0-.93.42-.992.965L6 5.103v13.794c0 .562.381 1.026.875 1.094L7 20h10c.51 0 .93-.42.992-.965l.008-.138V5.103c0-.562-.381-1.026-.875-1.094L17 4zm-1 13a1 1 0 01-1 1H9a1 1 0 010-2h6a1 1 0 011 1zm0-4a1 1 0 01-1 1h-2a1 1 0 010-2h2a1 1 0 011 1zm-3.732-6.24a2.668 2.668 0 010 3.673l-1.326 1.377a.609.609 0 01-.884 0l-1.326-1.377a2.668 2.668 0 010-3.672 2.435 2.435 0 013.536 0zm-1.768.748a1 1 0 100 2 1 1 0 000-2z" fill="none"/>
</svg>
